images/seat4.svg

<svg width="114" height="61" viewBox="0 0 114 61" fill="none" xmlns="http://www.w3.org/2000/svg">
<path fill-rule="evenodd" clip-rule="evenodd" d="M15.8441 11.1018H27.3322C29.9406 11.1018 32.0747 13.2359 32.0747 15.8444V27.3324C32.0747 29.9408 29.9406 32.0749 27.3322 32.0749H15.8441C13.2357 32.0749 11.1016 29.9408 11.1016 27.3324V15.8444C11.1016 13.2359 13.2357 11.1018 15.8441 11.1018ZM6.4737 57.576C6.4737 59.3638 5.02437 60.8129 3.23685 60.8129C1.44912 60.8129 0 59.3636 0 57.576V11.8168C0 8.5887 1.29384 5.64634 3.37778 3.50671C5.48506 1.3431 8.39316 0 11.5934 0H110.227C112.014 0 113.464 1.44933 113.464 3.23685C113.464 5.02458 112.014 6.4737 110.227 6.4737H11.5934C10.1976 6.4737 8.9271 7.0614 8.0055 8.00785C7.06098 8.97764 6.47392 10.3259 6.47392 11.8166V57.5758L6.4737 57.576ZM94.4926 11.1018H105.981C108.589 11.1018 110.723 13.2359 110.723 15.8444V27.3324C110.723 29.9408 108.589 32.0749 105.981 32.0749H94.4926C91.8842 32.0749 89.7501 29.9408 89.7501 27.3324V15.8444C89.7501 13.2359 91.8842 11.1018 94.4926 11.1018ZM68.2765 11.1018H79.7645C82.373 11.1018 84.507 13.2359 84.507 15.8444V27.3324C84.507 29.9408 82.373 32.0749 79.7645 32.0749H68.2765C65.6681 32.0749 63.534 29.9408 63.534 27.3324V15.8444C63.534 13.2359 65.6681 11.1018 68.2765 11.1018ZM42.0604 11.1018H53.5484C56.1569 11.1018 58.291 13.2359 58.291 15.8444V27.3324C58.291 29.9408 56.1569 32.0749 53.5484 32.0749H42.0604C39.452 32.0749 37.3179 29.9408 37.3179 27.3324V15.8444C37.3179 13.2359 39.452 11.1018 42.0604 11.1018ZM15.8444 37.3179H27.3324C29.9408 37.3179 32.0749 39.452 32.0749 42.0604V53.5484C32.0749 56.1569 29.9408 58.291 27.3324 58.291H15.8444C13.2359 58.291 11.1018 56.1569 11.1018 53.5484V42.0604C11.1018 39.452 13.2359 37.3179 15.8444 37.3179Z" fill="white"/>
</svg>

<svg width="114" height="61" fill="none" xmlns="http://www.w3.org/2000/svg"><path fill-rule="evenodd" clip-rule="evenodd" d="M15.844 11.102h11.488a4.756 4.756 0 014.743 4.742v11.488a4.756 4.756 0 01-4.743 4.743H15.844a4.756 4.756 0 01-4.742-4.743V15.844a4.756 4.756 0 014.742-4.742zm-9.37 46.474a3.237 3.237 0 11-6.474 0v-45.76c0-3.227 1.294-6.17 3.378-8.31C5.485 1.344 8.393 0 11.593 0h98.634a3.237 3.237 0 010 6.474H11.593a5 5 0 00-3.588 1.534 5.445 5.445 0 00-1.531 3.809v45.759zm88.019-46.474h11.488a4.756 4.756 0 014.742 4.742v11.488a4.756 4.756 0 01-4.742 4.743H94.493a4.756 4.756 0 01-4.743-4.743V15.844a4.756 4.756 0 014.743-4.742zm-26.216 0h11.487a4.756 4.756 0 014.743 4.742v11.488a4.756 4.756 0 01-4.743 4.743H68.278a4.756 4.756 0 01-4.743-4.743V15.844a4.756 4.756 0 014.742-4.742zm-26.217 0h11.488a4.756 4.756 0 014.743 4.742v11.488a4.756 4.756 0 01-4.743 4.743H42.06a4.756 4.756 0 01-4.742-4.743V15.844a4.756 4.756 0 014.742-4.742zM15.844 37.318h11.488a4.756 4.756 0 014.743 4.742v11.488a4.756 4.756 0 01-4.743 4.743H15.844a4.756 4.756 0 01-4.742-4.743V42.06a4.756 4.756 0 014.742-4.742z" fill="#fff"/></svg>
